X:298
T:Reel 298
M:4/4
K:Emin
L:1/8
fe|dBBc dBAB|dBAF DEFA|d2B^c dcdB|AcBe edBe|dBBc dcBA|FAEF GABc|dBAc Befe|dBAF FEE2|feed e2fe|fbba bafe|dBB^c de (3fga |gefe deeg|fdad fdee|dBBc defe| (3fga fe egfe|dBAF FEE2|
